svgs/light/square-8.svg

<svg xmlns="http://www.w3.org/2000/svg" viewBox="0 0 448 512"><!-- Font Awesome Pro 6.0.0-alpha2 by @fontawesome - https://fontawesome.com License - https://fontawesome.com/license (Commercial License) --><path d="M283.721 249.869C296.219 236.912 304 219.371 304 200C304 160.312 271.688 128 232 128H216C176.312 128 144 160.312 144 200C144 219.371 151.781 236.912 164.279 249.869C142.715 262.324 128 285.369 128 312C128 351.688 160.312 384 200 384H248C287.688 384 320 351.688 320 312C320 285.369 305.285 262.324 283.721 249.869ZM216 160H232C254.062 160 272 177.938 272 200S254.062 240 232 240H216C193.938 240 176 222.062 176 200S193.938 160 216 160ZM248 352H200C177.938 352 160 334.062 160 312S177.938 272 200 272H248C270.062 272 288 289.938 288 312S270.062 352 248 352ZM384 32H64C28.654 32 0 60.654 0 96V416C0 451.346 28.654 480 64 480H384C419.346 480 448 451.346 448 416V96C448 60.654 419.346 32 384 32ZM416 416C416 433.645 401.645 448 384 448H64C46.355 448 32 433.645 32 416V96C32 78.355 46.355 64 64 64H384C401.645 64 416 78.355 416 96V416Z"/></svg>

<svg xmlns="http://www.w3.org/2000/svg" viewBox="0 0 448 512"><!--! Font Awesome Pro 6.0.0-alpha3 by @fontawesome - https://fontawesome.com License - https://fontawesome.com/license (Commercial License) --><path d="M283.7 249.9C296.2 236.9 304 219.4 304 200C304 160.3 271.7 128 232 128h-16C176.3 128 144 160.3 144 200c0 19.37 7.781 36.91 20.28 49.87C142.7 262.3 128 285.4 128 312C128 351.7 160.3 384 200 384h48C287.7 384 320 351.7 320 312C320 285.4 305.3 262.3 283.7 249.9zM216 160h16c22.06 0 40 17.94 40 40S254.1 240 232 240h-16C193.9 240 176 222.1 176 200S193.9 160 216 160zM248 352h-48C177.9 352 160 334.1 160 312S177.9 272 200 272h48C270.1 272 288 289.9 288 312S270.1 352 248 352zM384 32H64C28.65 32 0 60.65 0 96v320c0 35.35 28.65 64 64 64h320c35.35 0 64-28.65 64-64V96C448 60.65 419.3 32 384 32zM416 416c0 17.64-14.36 32-32 32H64c-17.64 0-32-14.36-32-32V96c0-17.64 14.36-32 32-32h320c17.64 0 32 14.36 32 32V416z"/></svg>
